!!!SOCIAL_FUNCTION:	canoe songs
!!!PDT:	1943
!!!OTL: No_69_Canoe_Song_(a).krn
!!!REG: British Columbia
**kern
*staff1
=1-
*clefF4
*k[b-]
*M2/4
4r
8.r
16D\
=2!|:
8.F\L
16F\Jk
8F\L
24D\K
12F\J
=3
4..G\
16C/
=4
8.F\L
16A\Jk
8.A\L
32G\Jkk
32r
=5
8.A\L
16G\Jk
8.F\L
16D\Jk
=6
4F\
8r
16G\LL
16G\JJ
=7
4.A\
16F\LL
16G\JJ
=8
4F\
12G\L
12G\
12G\J
=9
8.A\L
16G\Jk
8.G\L
16F\Jk
=10
4G\
8.r
16C/
=11
8.F\L
16A\Jk
8.A\L
32G\Jkk
32r
=12
8.A\L
16G\Jk
8.F\L
16D\Jk
=13
=
4.F\
16r
16D\
=14:|!
4F\
4r
==
*-
